docs/img/svg/ok.svg

<svg xmlns="http://www.w3.org/2000/svg" preserveAspectRatio="xMidYMid" width="8" height="14" viewBox="0 0 8 14"><defs><style>.cls-1{fill:#fff;fill-rule:evenodd}</style></defs><path d="M7.791 8.478a4.023 4.023 0 0 1-1.459.991c-.521.213-1.092.319-1.656.391.085.097.125.145.178.201.767.81 1.537 1.617 2.302 2.429.26.277.314.62.171.942-.157.352-.508.583-.852.559-.218-.016-.388-.13-.539-.29-.579-.612-1.168-1.213-1.735-1.837-.165-.181-.245-.147-.39.011-.582.63-1.174 1.25-1.769 1.867-.268.277-.586.327-.896.168a.955.955 0 0 1-.522-.876c.011-.241.123-.424.28-.589.759-.796 1.516-1.595 2.273-2.393.05-.053.097-.109.17-.191-1.033-.113-1.964-.38-2.761-1.036-.098-.081-.201-.16-.291-.251-.349-.352-.384-.755-.108-1.171.236-.356.633-.451 1.045-.247.08.04.156.09.228.142 1.486 1.073 3.526 1.103 5.017.049a1.35 1.35 0 0 1 .489-.266c.356-.096.687.041.878.368.219.374.216.739-.053 1.029zM3.976 7.086C2.134 7.08.624 5.475.634 3.536.645 1.575 2.156-.005 4.016.001c1.864.005 3.36 1.608 3.351 3.588-.01 1.936-1.531 3.504-3.391 3.497zm.027-5.276c-.922-.001-1.658.78-1.651 1.751.007.959.743 1.72 1.659 1.717.914-.003 1.642-.775 1.639-1.738-.003-.962-.733-1.729-1.647-1.73z" class="cls-1"/></svg>

<svg xmlns="http://www.w3.org/2000/svg" xmlns:xlink="http://www.w3.org/1999/xlink" preserveAspectRatio="xMidYMid" width="8" height="14" viewBox="0 0 8 14">
  <defs>
    <style>
      .cls-1 {
        fill: #fff;
        fill-rule: evenodd;
      }
    </style>
  </defs>
  <path d="M7.791,8.478 C7.379,8.923 6.883,9.245 6.332,9.469 C5.811,9.682 5.240,9.788 4.676,9.860 C4.761,9.957 4.801,10.005 4.854,10.061 C5.621,10.871 6.391,11.678 7.156,12.490 C7.416,12.767 7.470,13.110 7.327,13.432 C7.170,13.784 6.819,14.015 6.475,13.991 C6.257,13.975 6.087,13.861 5.936,13.701 C5.357,13.089 4.768,12.488 4.201,11.864 C4.036,11.683 3.956,11.717 3.811,11.875 C3.229,12.505 2.637,13.125 2.042,13.742 C1.774,14.019 1.456,14.069 1.146,13.910 C0.817,13.743 0.607,13.389 0.624,13.034 C0.635,12.793 0.747,12.610 0.904,12.445 C1.663,11.649 2.420,10.850 3.177,10.052 C3.227,9.999 3.274,9.943 3.347,9.861 C2.314,9.748 1.383,9.481 0.586,8.825 C0.488,8.744 0.385,8.665 0.295,8.574 C-0.054,8.222 -0.089,7.819 0.187,7.403 C0.423,7.047 0.820,6.952 1.232,7.156 C1.312,7.196 1.388,7.246 1.460,7.298 C2.946,8.371 4.986,8.401 6.477,7.347 C6.625,7.228 6.783,7.131 6.966,7.081 C7.322,6.985 7.653,7.122 7.844,7.449 C8.063,7.823 8.060,8.188 7.791,8.478 ZM3.976,7.086 C2.134,7.080 0.624,5.475 0.634,3.536 C0.645,1.575 2.156,-0.005 4.016,0.001 C5.880,0.006 7.376,1.609 7.367,3.589 C7.357,5.525 5.836,7.093 3.976,7.086 ZM4.003,1.810 C3.081,1.809 2.345,2.590 2.352,3.561 C2.359,4.520 3.095,5.281 4.011,5.278 C4.925,5.275 5.653,4.503 5.650,3.540 C5.647,2.578 4.917,1.811 4.003,1.810 Z" class="cls-1"/>
</svg>
